X:1
T:Title
%%score { ( 1 3 ) | ( 2 4 ) }
L:1/8
M:4/4
K:Eb
V:1 treble nm="Grand Piano"
V:3 treble 
V:2 bass 
V:4 bass 
V:1
 z4 z2[Q:1/4=100] [EG]>[FA] | [GB]2 [Ge]2 d>c A>c | [GB]2 G2 E2 A>G | F>d d4 c>d | %4
 [Ge]>[GB] [GB]4 [GB]>[GB] | c2 c2 A>c e>c | [GB]2 [GB]2 G2 E>G | B>B B2 f2 d2 | [Ge]6 z2 | %9
 [DFB]2 [CE=A]2 [B,F_A]2 [B,EG]2 | G2 z2 z4 | [DF]>=E F>G [DA]2[K:bass] [F,A,D]2 | %12
 z4[K:treble] [EGB]4 | [DFB]2 [CE=A]2 [B,F_A]2 [B,EG]2 | [F,B,DG]2 [_D=E]>[=DF] [DB]2 [DF]2 | %15
 [B,EG]2 [=B,FG]2 e>d c>B | [DF]2 z2 [DB]4 | [DFAB]2 [DFAc]2 [DFA]2 [DFAB]2 | %18
 [B,EG]>[E_G] [B,E=G]>[E_G] [B,E=G]4 | [B,EG]2 [Gce]2 [FG=Bd]2 [Gc]2 | %20
 [CFA]>[=EG] [CFA]>[EG] [CFA]4 | [=Acf]2 [Ace]2 [FBd]2 [E_GAc]2 | %22
 [EGc]>[EGB] [E_G=A]>[=GB] [E_GAe]4 | %23
 [EGB]>[EGB] [EGB]2 [E=Ac]2 [DF_AB]2[Q:1/4=94][Q:1/4=88][Q:1/4=81] |[M:3/4] [G,B,EGBe]6[K:bass] |] %25
V:2
 z4 z2 [E,B,]>[E,B,] | [E,E]2 [E,B,]2[K:treble] [B,A]>[B,A] [B,F]>[B,DA] | %2
 [E,E]2 [E,B,E]2 [E,G,]2 z2 | [B,D]>[B,FA] [B,FA]4 z2 | [E,B,]>[E,E] [E,E]4 [E,E]>[E,E] | %5
 [A,EA]2 [A,EA]2 [A,C]>[A,EA] [A,CA]>[A,EA] | [E,E]2 [E,E]2 [E,B,E]2 E,>G, | %7
 B,>[K:treble]B, B,2 [B,DA]2 [B,A]2 | [E,B,]6 z2 | B,,2 C,2 D,2 E,2 | z z/ F/ z z/ F/ F,,2 C,2 | %11
 z z/ _D/ =D>E B,,2 D,2 | z z/ D/ z z/[K:treble] c/[K:bass] [E,,E,]2 E,2 | B,,2 C,2 D,2 E,2 | %14
 z z/ F/ [F,B,]2 [F,,F,]2 [F,B,]2 | [E,,E,]2 [D,,D,]2 [C,,C,]2 [E,G,C]2 | %16
 [F,,F,]2 [F,=A,CE]2 [B,,F,]2 D,2 | D,2 B,,2 D,2 B,,2 | z z/ B,/ z z/ B,/ [E,,E,]2 B,,2 | %19
 E,2 C,2 D,2 [E,E]2 | z z/ C/ z z/ C/ [F,,F,]2 C,2 | [=A,,=A,]2 [F,,F,]2 [B,,B,]2 [_G,,_G,]2 | %22
 [G,,G,]2 z z/ E/ =B,,4 | [B,,B,]2 [G,,G,]2 [F,,F,]2 [B,,B,]2 |[M:3/4] [E,,E,]2 B,,2 E,,2 |] %25
V:3
 x8 | x8 | x8 | x8 | x8 | x8 | x8 | x8 | x8 | x8 | C2- [F,A,C=E]2 [CA]2 [F,A,C]2 | x6[K:bass] x2 | %12
 [E,G,B,E]2[K:treble] [G,B,E]2 z2 [G,B,]2 | x8 | x8 | z4 [EG]2 [EG]2 | B>=A G>A z2 [F,B,]2 | x8 | %18
 x8 | x8 | x8 | x8 | x8 | x8 |[M:3/4] z2 z2[K:bass] E,2 |] %25
V:4
 x8 | x4[K:treble] x4 | x8 | x8 | x8 | x8 | x8 | x3/2[K:treble] x13/2 | x8 | x8 | A,,2 C,2 z4 | %11
 B,,2 [D,F,A,]2 z4 | E,,2 E,2[K:treble][K:bass] z4 | x8 | F,,2 z2 z4 | x8 | x8 | x8 | %18
 [E,,E,]2 B,,2 z4 | x8 | [F,,F,]2 C,2 z4 | x8 | z2 [E,,E,]2 z4 | x8 |[M:3/4] x6 |] %25

